picto/mobiles-prohibited-framed.svg

<svg class="color-immutable" width="30" height="30" viewBox="0 0 30 30" fill="none" xmlns="http://www.w3.org/2000/svg"><path d="M30 30H0V0H30V30Z" fill="#2D327D"/><path d="M25.5 3C26.325 3 27 3.675 27 4.5V25.5C27 26.325 26.325 27 25.5 27H4.5C3.675 27 3 26.325 3 25.5V4.5C3 3.675 3.675 3 4.5 3H25.5ZM25.5 2.625H4.5C3.46613 2.625 2.625 3.46613 2.625 4.5V25.5C2.625 26.5339 3.46613 27.375 4.5 27.375H25.5C26.5339 27.375 27.375 26.5339 27.375 25.5V4.5C27.375 3.46613 26.5339 2.625 25.5 2.625Z" fill="white"/><path d="M6.26097 19.1819L6.25798 19.183C6.0809 19.6022 6.00418 20.0685 6.0014 20.4647C5.99825 20.8593 6.0014 24 6.0014 24H13.8228C13.9065 23.8115 14.1391 23.3905 14.3874 22.8562C14.187 22.9448 13.9598 22.9968 13.7138 23.0037C13.6955 23.0041 13.6771 23.0044 13.6588 23.0044C13.3587 23.0044 13.0489 22.9358 12.763 22.8059L9.25385 21.2105C8.75008 20.9816 8.36225 20.5835 8.18983 20.1179C8.0567 19.7585 8.06555 19.3841 8.2145 19.0634L9.80157 15.6512L10.6741 13.7753C10.8386 13.2703 10.6953 12.7118 10.2966 12.3486C10.2403 12.2972 10.1747 12.2548 10.1021 12.2243C9.75703 12.0785 9.3569 12.2406 9.21073 12.587L6.26097 19.1819Z" fill="white"/><path d="M15.5156 23.9682C15.0709 23.963 14.7149 23.5981 14.7193 23.1537C14.7248 22.7089 15.0891 22.3521 15.5338 22.3578L17.0117 22.3568C17.4561 22.3514 17.8208 22.7075 17.8265 23.153C17.8317 23.5974 17.4759 23.9626 17.0306 23.9673L15.5156 23.9682Z" fill="white"/><path d="M16.4342 22.0015C15.9894 21.9964 15.6334 21.6322 15.6377 21.1879C15.6431 20.743 16.0076 20.3854 16.4523 20.3911H17.93C18.3745 20.3857 18.7394 20.7417 18.7451 21.1872C18.7502 21.6316 18.3944 21.9968 17.9492 22.0015H16.4342Z" fill="white"/><path d="M24.2011 23.1402L19.2135 18.1526H19.76C20.2053 18.1478 20.5611 17.7818 20.5559 17.3374C20.5502 16.8919 20.1853 16.5358 19.7409 16.5413H18.2631C18.0765 16.5389 17.9046 16.601 17.7669 16.706L17.4144 16.3536L19.5555 11.7503C19.6867 11.4683 19.6706 11.1389 19.5102 10.8226C19.347 10.5013 19.0549 10.2323 18.6876 10.0655L15.1779 8.4702C14.9365 8.36048 14.6763 8.30265 14.4255 8.30265L14.3798 8.30325C13.8856 8.31698 13.4877 8.5464 13.3152 8.91698L12.2557 11.1949L6.85923 5.7984L5.79858 6.85905L11.5822 12.6427L8.52783 19.2097C8.41661 19.4491 8.41181 19.7215 8.51396 19.9973C8.65443 20.3767 8.97588 20.7038 9.39603 20.8946L12.9052 22.49C13.1463 22.5994 13.4064 22.6573 13.6575 22.6573L13.7028 22.6566C14.1976 22.6427 14.5959 22.4136 14.7681 22.0435L16.7411 17.8016L17.3769 18.4373H17.3605C16.9158 18.4316 16.5513 18.7893 16.5459 19.2341C16.5416 19.6784 16.8976 20.0426 17.3424 20.0478H18.8574C18.898 20.0474 18.9375 20.043 18.9764 20.0368L23.1406 24.2009L24.2011 23.1402ZM13.9764 9.5442L18.5944 11.6205L16.728 15.6671L12.9123 11.8514L13.9764 9.5442ZM12.1977 20.7497C12.0783 20.9967 11.7771 21.0989 11.525 20.9783C11.2734 20.8576 11.166 20.5601 11.2854 20.3131C11.4049 20.0657 11.7057 19.964 11.9573 20.084C12.2095 20.2046 12.3172 20.5024 12.1977 20.7497ZM14.5718 20.3421L9.95426 18.2652L12.2427 13.3033L16.0584 17.1189L14.5718 20.3421Z" fill="white"/><path d="M6.85923 5.7985L5.79858 6.85915L23.1403 24.2008L24.2009 23.1402L6.85923 5.7985Z" fill="#EB0000"/></svg>

<svg class="color-immutable" width="30" height="30" viewBox="0 0 30 30" fill="none" xmlns="http://www.w3.org/2000/svg"><g clip-path="url(#a)"><path d="M30 30H0V0h30v30Z" fill="#2D327D"/><path d="M25.5 3c.825 0 1.5.675 1.5 1.5v21c0 .825-.675 1.5-1.5 1.5h-21c-.825 0-1.5-.675-1.5-1.5v-21C3 3.675 3.675 3 4.5 3h21Zm0-.375h-21A1.877 1.877 0 0 0 2.625 4.5v21c0 1.034.841 1.875 1.875 1.875h21a1.877 1.877 0 0 0 1.875-1.875v-21A1.877 1.877 0 0 0 25.5 2.625Z" fill="#fff"/><path d="m6.261 19.182-.003.001a3.45 3.45 0 0 0-.257 1.282c-.003.394 0 3.535 0 3.535h7.822c.083-.189.316-.61.564-1.144a1.785 1.785 0 0 1-.728.148c-.3 0-.61-.068-.896-.198l-3.51-1.596c-.503-.228-.89-.627-1.063-1.092a1.363 1.363 0 0 1 .024-1.055l1.588-3.412.872-1.876a1.359 1.359 0 0 0-.377-1.426.681.681 0 0 0-1.086.238l-2.95 6.595ZM15.516 23.968a.806.806 0 0 1 .018-1.61l1.478-.001a.806.806 0 0 1 .019 1.61l-1.515.001ZM16.434 22.002a.806.806 0 0 1 .018-1.61h1.478a.806.806 0 0 1 .02 1.61h-1.516Z" fill="#fff"/><path d="m24.201 23.14-4.988-4.987h.547a.805.805 0 1 0-.02-1.612h-1.477a.798.798 0 0 0-.496.165l-.353-.352 2.141-4.604c.132-.282.116-.611-.045-.927a1.7 1.7 0 0 0-.822-.758l-3.51-1.595a1.835 1.835 0 0 0-.753-.167h-.045c-.494.014-.892.243-1.065.614l-1.06 2.278L6.86 5.798 5.8 6.86l5.783 5.784-3.054 6.567c-.111.24-.116.511-.014.787.14.38.462.707.882.898l3.51 1.595c.24.11.5.167.752.167h.045c.495-.014.893-.243 1.065-.613l1.973-4.242.636.635h-.017a.806.806 0 0 0-.018 1.61h1.515c.041 0 .08-.004.12-.01L23.14 24.2l1.06-1.06ZM13.976 9.544l4.618 2.076-1.866 4.047-3.816-3.816 1.064-2.307ZM12.198 20.75a.504.504 0 0 1-.673.228.499.499 0 0 1-.24-.665c.12-.247.42-.349.672-.229.252.12.36.418.24.666Zm2.374-.408-4.618-2.077 2.289-4.962 3.815 3.816-1.486 3.223Z" fill="#fff"/><path d="M6.86 5.798 5.798 6.86 23.14 24.201l1.06-1.06L6.86 5.798Z" fill="#EB0000"/></g><defs><clipPath id="a"><path fill="#fff" d="M0 0h30v30H0z"/></clipPath></defs></svg>
